usr/share/icons/biglinux-icons-material-dark/22/actions/amarok_change_language.svg

<svg xmlns="http://www.w3.org/2000/svg" viewBox="0 0 22 22">
<defs id="defs3051">
<style id="current-color-scheme" type="text/css">
.ColorScheme-Text{color:#dedede}
</style>
</defs>
<path d="M3 3v8h5v4l4 4v-4h7V7h-5V3zm1 1h9v6H4zm10 4h4v6H9v-3h2v3l3-3z" class="ColorScheme-Text" style="fill:currentColor;fill-opacity:1;stroke:none"/>
</svg>

<svg xmlns="http://www.w3.org/2000/svg" viewBox="0 0 22 22">
  <defs id="defs3051">
    <style type="text/css" id="current-color-scheme">
      .ColorScheme-Text {
        color:#dedede;
      }
      </style>
  </defs>
 <path 
     style="fill:currentColor;fill-opacity:1;stroke:none" 
	d="M 3 3 L 3 11 L 8 11 L 8 15 L 12 19 L 12 15 L 19 15 L 19 7 L 14 7 L 14 3 L 3 3 z M 4 4 L 13 4 L 13 7 L 13 8 L 13 10 L 9 10 L 8 10 L 4 10 L 4 4 z M 14 8 L 18 8 L 18 14 L 11 14 L 9 14 L 9 11 L 11 11 L 11 14 L 14 11 L 14 8 z "
	 class="ColorScheme-Text"
     />
</svg>
